images/types-type-2-2.svg

<svg width="20" height="21" viewBox="0 0 20 21" fill="none" xmlns="http://www.w3.org/2000/svg">
<g clip-path="url(#clip0_0_358)">
<path d="M6.55309 13.1235C6.55309 13.1235 5.89372 14.2813 5.68747 15.1329C5.48278 15.9829 5.59528 16.3157 5.81872 17.0095C6.07497 17.8017 6.38591 18.4454 6.98434 18.0657C7.46872 17.7579 7.52028 17.0173 7.44684 16.7235C7.37341 16.4298 7.30778 16.0204 7.33747 15.8438C7.36716 15.6673 7.69684 14.8688 7.96091 14.4876C8.22497 14.1063 8.22497 13.5485 8.18122 13.5048C8.13591 13.461 6.55309 13.1235 6.55309 13.1235Z" fill="#4D4D4D"/>
<path d="M8.08598 18.836C8.08598 18.836 7.89848 19.8704 7.99848 19.8704C8.09692 19.8704 8.79067 19.8376 9.03285 19.672C9.27504 19.5063 9.49223 18.9454 9.69223 18.3079C9.93442 17.5376 10.2719 16.5501 10.3516 16.3063C10.4985 15.8595 10.6594 15.4048 10.6594 15.4048C10.6594 15.4048 11.4063 15.3376 11.8688 15.3173C12.6063 15.2845 13.1188 15.2501 13.2329 15.3282C13.3766 15.4267 14.0375 15.872 14.2 16.1095C14.4422 16.461 13.6063 18.111 13.6063 18.111C13.6063 18.111 13.0125 18.6392 13.0344 18.936C13.0563 19.2329 13.6282 19.2001 14.1344 19.1782C14.6407 19.1563 14.911 19.0126 14.9813 18.936C15.2454 18.6501 15.5204 17.8688 15.6969 17.2313C15.8657 16.6204 16.0922 16.2407 16.0266 15.8454C15.961 15.4501 13.9594 13.7563 13.9594 13.7563L9.04379 14.9438L8.08598 18.836Z" fill="#4D4D4D"/>
<path d="M5.31568 5.05622L7.89693 4.0156C7.89693 4.0156 7.64693 3.35622 7.32505 2.78435C7.00318 2.21247 6.28443 1.14216 5.94693 1.22966C5.60943 1.31716 5.2563 2.94841 5.17661 3.38591C5.01411 4.2781 5.31568 5.05622 5.31568 5.05622Z" fill="#4D4D4D"/>
<path d="M2.92498 7.336C2.92029 7.336 2.3906 7.336 2.02966 7.32506C1.66716 7.31412 1.32966 7.30318 1.32966 7.30318C1.32966 7.30318 1.16248 7.2985 1.16248 7.13443C1.16248 6.96881 1.33591 6.97662 1.33591 6.97662C1.33591 6.97662 1.67498 6.98756 2.03904 6.9985C2.39529 7.00943 2.92029 7.00943 2.92498 7.00943C3.0156 7.00943 3.08904 7.08287 3.08904 7.1735C3.08904 7.26412 3.0156 7.336 2.92498 7.336Z" fill="#B0B1B2"/>
<path d="M1.33911 8.32835C1.33911 8.32835 1.18442 8.37054 1.15005 8.20179C1.11567 8.03148 1.2688 8.00804 1.2688 8.00804C1.2688 8.00804 1.71724 7.87523 2.02661 7.8096C2.33286 7.74398 2.97036 7.62367 2.97661 7.6221C3.06567 7.60492 3.15161 7.66429 3.1688 7.75335C3.18599 7.84242 3.12661 7.92835 3.03755 7.94554C3.0313 7.9471 2.39849 8.06742 2.09536 8.13148C1.78755 8.19554 1.33911 8.32835 1.33911 8.32835Z" fill="#B0B1B2"/>
<path d="M2.09693 9.17349C2.0438 9.17349 1.99224 9.14693 1.95943 9.10005C1.93549 9.0637 1.92682 9.01939 1.9353 8.9767C1.94378 8.93401 1.96873 8.89637 2.00474 8.87193L2.86099 8.20161C2.89734 8.17768 2.94165 8.16901 2.98434 8.17749C3.02703 8.18597 3.06467 8.21091 3.08911 8.24693C3.13911 8.32193 3.1188 8.42349 3.0438 8.47505L2.24068 9.10786C2.21255 9.12661 2.12818 9.17349 2.09693 9.17349Z" fill="#B0B1B2"/>
<path d="M5.70942 11.0266C5.70942 11.1578 5.80161 12.1328 5.90786 12.8297C6.01724 13.5563 6.34849 14.1063 7.00786 14.5453C7.80005 15.0735 8.50317 15.161 8.50317 15.161C8.50317 15.161 8.26099 16.6563 7.9313 17.6469C7.87192 17.8266 7.51411 18.5594 7.43599 18.6813C7.35786 18.8031 7.15005 19.1547 7.18286 19.4078C7.2188 19.6828 7.42505 20.0016 8.30474 19.825C9.01724 19.6828 9.08599 18.9641 9.29536 18.3813C9.37349 18.1625 9.85942 16.8125 9.95474 16.4969C10.1657 15.7985 10.2844 15.3281 10.3954 15.2063C10.5047 15.086 11.6719 15.0297 12.3969 14.986C13.1235 14.9422 14.2891 14.9203 14.2891 14.9203C14.2891 14.9203 14.7844 15.3266 15.3344 15.5797C16.1907 15.9735 16.9954 16.086 17.3688 16.5922C17.7297 17.0797 17.6704 17.55 17.5891 17.9453C17.4579 18.5828 17.2172 18.9344 17.2594 19.1656C17.3141 19.4735 17.611 19.5063 18.2266 19.5172C18.8219 19.5281 18.9375 19.4094 19.0516 19.1219C19.5032 17.9813 18.7766 16.5047 18.7219 15.525C18.6954 15.061 17.9625 14.9313 17.7985 14.2485C17.6329 13.5672 17.5829 12.8735 17.3844 12.1922C17.1688 11.4485 16.9 10.8203 16.9 10.8203C16.9 10.8203 17.6657 10.3547 18.1391 9.83751C18.6125 9.32033 19.2875 8.63439 19.011 7.27814C18.7907 6.20001 18.0719 5.48126 16.3672 4.9422C14.6813 4.40939 14.3375 5.02814 14.2891 5.43283C14.2235 5.98283 14.9266 6.17345 15.675 6.31564C16.4235 6.45783 17.8563 6.91408 17.4344 8.16408C17.1704 8.94533 16.0047 9.42189 16.0047 9.42189C16.0047 9.42189 14.8829 9.25314 13.3657 9.41876C12.1407 9.5547 11.5594 9.87501 11.4282 9.8172C11.2297 9.7297 11.3625 9.44376 11.5719 9.11408C11.9032 8.59064 12.3094 7.9047 12.3094 7.04689C12.3094 6.18908 11.9032 5.72658 11.9032 5.72658C11.9032 5.72658 11.8922 4.04376 11.65 3.08751C11.4079 2.13126 10.9563 1.01876 10.4829 0.996889C10.0094 0.975014 9.17349 2.1297 8.95474 2.4922C8.73599 2.8547 8.37192 3.60314 8.37192 3.60314C8.37192 3.60314 7.09067 3.44845 6.0188 3.96564C5.07817 4.41876 4.50161 5.83595 4.21567 5.94533C3.92974 6.0547 3.25474 6.0297 2.99067 6.47033C2.8813 6.65158 2.87036 7.85939 2.87036 7.85939C2.87036 7.85939 2.95317 8.14533 3.04067 8.39533C3.10942 8.59064 3.46567 9.11408 3.8938 9.42814C4.45005 9.83595 5.1938 10.4125 5.35786 10.5438C5.52192 10.675 5.70942 11.0266 5.70942 11.0266Z" fill="#5D6265"/>
<path d="M8.9437 4.28417C8.95464 4.51542 9.48277 4.82324 9.75777 5.02167C10.0328 5.22011 10.4281 5.65449 10.5828 5.62636C10.8562 5.57792 10.8359 4.41699 10.7812 3.8998C10.7265 3.38261 10.4515 2.5248 10.275 2.45917C10.0984 2.39355 9.64214 3.05136 9.52652 3.22949C9.32808 3.5373 8.93277 4.07636 8.9437 4.28417Z" fill="#FFAB93"/>
<path d="M3.37964 7.47015C3.45307 7.38265 4.56245 7.0889 4.59839 6.89047C4.63432 6.69203 4.37182 6.53109 3.90932 6.42172C3.4937 6.32328 3.11401 6.36234 3.02026 6.42953C2.89526 6.51703 2.7562 6.96547 2.7937 7.42015C2.8312 7.89047 2.99057 8.27484 3.19682 8.48265C3.34057 8.62797 3.69057 8.85609 3.99839 8.87796C4.3062 8.89984 4.59214 8.76859 4.74682 8.6139C4.90151 8.45922 4.79057 8.21078 4.5562 8.34984C4.32182 8.4889 4.16557 8.53109 3.96245 8.47484C3.74995 8.41547 3.44526 8.20765 3.3812 7.86703C3.34057 7.6639 3.37964 7.47015 3.37964 7.47015Z" fill="#2F2F2F"/>
<path d="M7.98751 8.88109C7.96251 8.88109 7.93751 8.87484 7.91408 8.86391C7.90939 8.86234 7.47501 8.64203 7.09845 8.53109C6.71095 8.41703 6.34845 8.32953 6.34376 8.32797C6.25626 8.30609 6.20158 8.21859 6.22189 8.12953C6.24376 8.04203 6.33126 7.98734 6.42033 8.00766C6.42345 8.00922 6.79533 8.09828 7.19064 8.21547C7.59689 8.33578 8.0422 8.56234 8.06095 8.57172C8.09377 8.58827 8.12006 8.6154 8.13556 8.64873C8.15106 8.68206 8.15488 8.71964 8.14639 8.7554C8.1379 8.79117 8.1176 8.82303 8.08877 8.84583C8.05995 8.86864 8.02427 8.88106 7.98751 8.88109Z" fill="#B0B1B2"/>
<path d="M7.8187 10.0109C7.78433 10.0109 7.74995 9.99996 7.72183 9.97808C7.71714 9.97496 7.21402 9.60308 6.89058 9.37964C6.57652 9.16402 6.14214 8.96246 6.13745 8.96089C6.09934 8.94196 6.07008 8.90896 6.05584 8.86885C6.0416 8.82875 6.04351 8.78468 6.06115 8.74596C6.07879 8.70723 6.11078 8.67687 6.15038 8.66129C6.18999 8.64571 6.23409 8.64613 6.27339 8.66246C6.29214 8.67183 6.73745 8.87652 7.07495 9.10933C7.40308 9.33589 7.91089 9.70933 7.91558 9.71402C7.98902 9.76714 8.00308 9.87027 7.94995 9.94371C7.9187 9.98746 7.8687 10.0109 7.8187 10.0109Z" fill="#B0B1B2"/>
<path d="M7.04213 10.5828C7.00306 10.5828 6.964 10.5687 6.93275 10.5406L5.84838 9.5734C5.78119 9.51246 5.77494 9.40934 5.83588 9.34215C5.89681 9.27496 5.99994 9.26871 6.06713 9.32965L7.1515 10.2968C7.17612 10.319 7.19344 10.3481 7.20119 10.3804C7.20893 10.4126 7.20674 10.4464 7.19491 10.4773C7.18307 10.5083 7.16214 10.5349 7.13486 10.5537C7.10759 10.5726 7.07526 10.5827 7.04213 10.5828Z" fill="#B0B1B2"/>
<path d="M7.05862 6.84027C7.264 6.48454 7.20331 6.065 6.92306 5.90319C6.64281 5.74139 6.24913 5.8986 6.04375 6.25433C5.83837 6.61006 5.89906 7.0296 6.17931 7.19141C6.45956 7.35321 6.85324 7.196 7.05862 6.84027Z" fill="#010000"/>
<path d="M6.50159 6.43599C6.41565 6.59693 6.26565 6.70005 6.14221 6.62349C6.01877 6.54692 6.08909 6.30161 6.15784 6.20943C6.22659 6.11724 6.35002 6.00161 6.4719 6.07818C6.5969 6.1563 6.5594 6.32974 6.50159 6.43599Z" fill="#DEDEDE"/>
</g>
<defs>
<clipPath id="clip0_0_358">
<rect width="20" height="20" fill="white" transform="translate(0 0.5)"/>
</clipPath>
</defs>
</svg>

<svg width="20" height="21" fill="none" xmlns="http://www.w3.org/2000/svg"><g clip-path="url(#clip0_0_358)"><path d="M6.553 13.123s-.66 1.158-.866 2.01c-.204.85-.092 1.183.132 1.877.256.792.567 1.435 1.165 1.056.485-.308.536-1.049.463-1.342-.074-.294-.14-.704-.11-.88.03-.177.36-.975.624-1.356.264-.382.264-.94.22-.983-.045-.044-1.628-.382-1.628-.382zm1.533 5.713s-.188 1.034-.088 1.034c.099 0 .793-.032 1.035-.198.242-.166.46-.727.66-1.364.241-.77.579-1.758.659-2.002.146-.447.307-.901.307-.901s.747-.067 1.21-.088c.737-.033 1.25-.067 1.364.011.144.099.804.544.967.782.242.351-.594 2.001-.594 2.001s-.594.528-.572.825c.022.297.594.264 1.1.242.507-.022.777-.165.847-.242.264-.286.54-1.067.716-1.705.169-.61.395-.99.33-1.386-.066-.395-2.068-2.089-2.068-2.089l-4.915 1.188-.958 3.892zm-2.77-13.78l2.58-1.04s-.25-.66-.57-1.232c-.323-.572-1.042-1.642-1.38-1.554-.337.087-.69 1.718-.77 2.156a3.42 3.42 0 00.14 1.67z" fill="#4D4D4D"/><path d="M2.925 7.336c-.005 0-.534 0-.895-.01l-.7-.023s-.168-.005-.168-.169c0-.165.174-.157.174-.157l.703.021c.356.011.881.011.886.011.09 0 .164.074.164.164a.163.163 0 01-.164.163zm-1.585.992s-.156.043-.19-.126a.15.15 0 01.119-.194s.448-.133.758-.198c.306-.066.943-.186.95-.188a.165.165 0 01.06.324 63.24 63.24 0 00-.942.185c-.307.065-.756.197-.756.197zm.757.845a.169.169 0 01-.138-.073.166.166 0 01.046-.228l.856-.67a.166.166 0 01.228.045c.05.075.03.176-.045.228l-.803.633a.457.457 0 01-.144.065z" fill="#B0B1B2"/><path d="M5.71 11.027c0 .13.092 1.106.198 1.803.11.726.44 1.276 1.1 1.715.792.528 1.495.616 1.495.616s-.242 1.495-.572 2.486c-.06.18-.417.912-.495 1.034-.078.122-.286.474-.253.727.036.275.242.594 1.122.417.712-.142.781-.86.99-1.444.078-.218.564-1.569.66-1.884.21-.698.33-1.169.44-1.29.11-.121 1.277-.177 2.002-.221a59.035 59.035 0 011.892-.066s.495.407 1.045.66c.857.393 1.661.506 2.035 1.012.36.488.301.958.22 1.353-.131.638-.372.99-.33 1.22.055.309.352.341.968.352.595.011.71-.108.825-.395.451-1.14-.275-2.617-.33-3.597-.027-.464-.76-.594-.924-1.277-.165-.68-.215-1.374-.414-2.056-.215-.744-.484-1.372-.484-1.372s.766-.465 1.24-.982c.473-.518 1.148-1.204.871-2.56-.22-1.078-.94-1.797-2.644-2.336-1.686-.533-2.03.086-2.078.49-.066.55.638.741 1.386.884.748.142 2.181.598 1.76 1.848-.265.781-1.43 1.258-1.43 1.258s-1.122-.169-2.64-.003c-1.224.136-1.806.456-1.937.398-.198-.087-.066-.373.144-.703.331-.523.737-1.21.737-2.067 0-.858-.406-1.32-.406-1.32s-.01-1.683-.253-2.64c-.242-.956-.694-2.068-1.167-2.09-.474-.022-1.31 1.133-1.528 1.495-.219.363-.583 1.111-.583 1.111s-1.281-.155-2.353.363c-.94.453-1.517 1.87-1.803 1.98-.286.109-.961.084-1.225.524-.11.182-.12 1.39-.12 1.39s.082.285.17.535c.068.196.425.72.853 1.033.556.408 1.3.984 1.464 1.116.164.131.351.483.351.483z" fill="#5D6265"/><path d="M8.944 4.284c.01.231.539.54.814.738.275.198.67.632.825.604.273-.048.253-1.209.198-1.726-.055-.517-.33-1.375-.506-1.44-.177-.066-.633.591-.748.77-.199.307-.594.846-.583 1.054z" fill="#FFAB93"/><path d="M3.38 7.47c.073-.087 1.182-.381 1.218-.58.036-.198-.226-.359-.689-.468-.415-.099-.795-.06-.889.008-.125.087-.264.535-.226.99.037.47.197.855.403 1.063.144.145.494.373.801.395a1 1 0 00.749-.264c.155-.155.044-.403-.19-.264-.235.139-.391.181-.595.125-.212-.06-.517-.267-.58-.608-.041-.203-.002-.397-.002-.397z" fill="#2F2F2F"/><path d="M7.988 8.881a.174.174 0 01-.074-.017c-.005-.002-.439-.222-.816-.333-.387-.114-.75-.201-.754-.203a.166.166 0 01-.122-.198.166.166 0 01.198-.122c.003.001.375.09.77.207.407.12.852.347.87.357a.163.163 0 01-.072.31zm-.169 1.129a.158.158 0 01-.097-.032c-.005-.003-.508-.375-.831-.598a6.03 6.03 0 00-.754-.42.164.164 0 01.136-.298c.02.01.464.215.802.447.328.227.836.6.84.605a.164.164 0 01-.096.297zm-.777.573a.163.163 0 01-.11-.042l-1.084-.968a.163.163 0 11.22-.243l1.084.967a.164.164 0 01-.11.286z" fill="#B0B1B2"/><path d="M7.059 6.84c.205-.355.144-.775-.136-.937-.28-.162-.674-.004-.88.351-.205.356-.144.776.136.937.28.162.674.005.88-.35z" fill="#010000"/><path d="M6.502 6.436c-.086.16-.236.264-.36.187-.123-.076-.053-.321.016-.414.069-.092.192-.207.314-.13.125.077.087.25.03.357z" fill="#DEDEDE"/></g><defs><clipPath id="clip0_0_358"><path fill="#fff" transform="translate(0 .5)" d="M0 0h20v20H0z"/></clipPath></defs></svg>
